libs/ui/packages/crypto-icons/src/svg/RHOC.svg

<svg width="24" height="24" viewBox="0 0 24 24" fill="none">
<path d="M8.61317 6.90261C9.86844 5.95924 11.3635 5.38752 12.9279 5.25261C13.0869 5.22036 13.2594 5.32086 13.2542 5.49636C13.2692 5.91636 13.2587 6.33636 13.2587 6.75636C13.2692 6.88686 13.2002 7.05636 13.0502 7.06011C11.6657 7.21311 10.3502 7.77861 9.20717 8.56011C9.09917 8.62086 9.12317 8.76111 9.13217 8.86311C9.21167 9.59961 9.15767 10.3414 9.17942 11.0801C12.9099 11.0906 16.6419 11.0786 20.3739 11.0861C20.5517 11.0711 20.7392 11.1724 20.7249 11.3711C20.7437 12.6274 20.7287 13.8836 20.7324 15.1391C20.7354 15.8216 20.5899 16.5281 20.1767 17.0861C19.5242 17.9629 18.3767 18.4886 17.2862 18.2951C16.5137 18.1796 15.8462 17.7004 15.3782 17.0921C14.1043 18.0503 12.5841 18.6264 10.9952 18.7534C10.8339 18.7556 10.7132 18.5974 10.7379 18.4429C10.7432 18.0034 10.7289 17.5624 10.7454 17.1229C10.7829 16.8904 11.0694 16.9354 11.2397 16.8971C12.5477 16.6931 13.7987 16.1449 14.8667 15.3671C14.8116 14.5511 14.7924 13.7331 14.8089 12.9154C11.0649 12.8914 7.31942 12.9139 3.57542 12.9034C3.41042 12.9221 3.25142 12.7984 3.26717 12.6236C3.26417 11.3014 3.26492 9.97836 3.26867 8.65611C3.27617 7.96461 3.49442 7.26561 3.95267 6.73836C4.55642 6.05136 5.46692 5.61261 6.39092 5.66661C7.27592 5.70186 8.08817 6.20511 8.61317 6.90261ZM4.77617 8.88411C4.77467 9.65886 4.77392 10.4344 4.77767 11.2106C5.70317 11.2099 6.62717 11.2234 7.55192 11.2031C7.55342 10.4471 7.56317 9.69186 7.54742 8.93586C7.53317 8.21136 6.87842 7.57086 6.15092 7.58586C5.44067 7.55661 4.79342 8.17836 4.77617 8.88336V8.88411ZM16.5579 12.8516C16.5504 13.5881 16.5564 14.3254 16.5534 15.0619C16.5489 15.3566 16.6382 15.6446 16.8084 15.8846C17.1639 16.3924 17.8719 16.6144 18.4509 16.3901C18.9857 16.1921 19.3389 15.6326 19.3329 15.0701C19.3329 14.3306 19.3367 13.5926 19.3299 12.8531C18.4059 12.8456 17.4819 12.8494 16.5579 12.8509V12.8516Z" fill="#CC1E46"/>
</svg>

<svg width="24" height="24" viewBox="0 0 24 24" fill="none"><path fill="#cc1e46" d="M8.613 6.903a8.4 8.4 0 0 1 4.315-1.65c.159-.033.331.068.326.243.015.42.005.84.005 1.26.01.13-.059.3-.209.304-1.384.153-2.7.719-3.843 1.5-.108.06-.084.201-.075.303.08.737.026 1.478.047 2.217 3.73.01 7.463-.001 11.195.006.178-.015.365.086.35.285.02 1.256.005 2.513.008 3.768.003.683-.142 1.39-.555 1.947-.653.877-1.8 1.403-2.89 1.21-.773-.116-1.44-.596-1.909-1.204a8.4 8.4 0 0 1-4.383 1.661c-.161.003-.282-.156-.257-.31.005-.44-.01-.88.007-1.32.038-.233.324-.188.495-.226 1.308-.204 2.559-.752 3.627-1.53a28 28 0 0 1-.058-2.452c-3.744-.024-7.49-.001-11.234-.012-.165.02-.324-.105-.308-.28q-.004-1.983.002-3.967c.007-.691.225-1.39.684-1.918.603-.687 1.514-1.125 2.438-1.071.885.035 1.697.538 2.222 1.236M4.776 8.884q-.003 1.162.002 2.327c.925-.001 1.85.012 2.774-.008.001-.756.011-1.511-.005-2.267-.014-.725-.669-1.365-1.396-1.35-.71-.03-1.358.592-1.375 1.297zm11.782 3.968c-.008.736-.002 1.473-.005 2.21a1.4 1.4 0 0 0 .255.823c.356.507 1.064.73 1.643.505.535-.198.888-.757.882-1.32 0-.74.004-1.477-.003-2.217-.924-.007-1.848-.004-2.772-.002"/></svg>
